svgs/bluetooth_control.svg

<svg width="192" height="192" viewBox="0 0 192 192" fill="none" xmlns="http://www.w3.org/2000/svg">
<path d="M94.9865 109.176V72.6892L123.365 90.9324L94.9865 109.176ZM94.9865 109.176V145.662L123.365 127.419L94.9865 109.176ZM94.9865 109.176L66.6081 90.9324M94.9865 109.176L66.6081 127.419M54.4459 34.1757C35.1383 47.7447 21 70.6085 21 96C21 137.421 54.5786 171 96 171C137.421 171 171 137.421 171 96C171 70.6085 157.875 47.7447 138.568 34.1757M75.7297 21V27.0811M116.27 21V27.0811M84.8514 41.2703C86.6583 44.8395 90.9693 47.3514 96 47.3514C101.031 47.3514 105.342 44.8395 107.149 41.2703" stroke="#000" stroke-width="10" stroke-linecap="round" stroke-linejoin="round"/>
</svg>

<svg xmlns="http://www.w3.org/2000/svg" width="192" height="192" fill="none"><path stroke="#000" stroke-linecap="round" stroke-linejoin="round" stroke-width="10" d="M94.987 109.176V72.689l28.378 18.243zm0 0v36.486l28.378-18.243zm0 0L66.608 90.932m28.379 18.244-28.379 18.243M54.446 34.176C35.138 47.745 21 70.609 21 96c0 41.421 33.579 75 75 75s75-33.579 75-75c0-25.391-13.125-48.255-32.432-61.824M75.73 21v6.081M116.27 21v6.081m-31.419 14.19C86.658 44.84 90.97 47.35 96 47.35s9.342-2.511 11.149-6.08"/></svg>
